svgs/firefds.svg

<svg xmlns="http://www.w3.org/2000/svg" viewBox="0 0 192 192"><path d="M87.784 174.511c-.419-.82-1.853-4.636-3.187-8.481l-2.426-6.992-5.681-1.799c-3.125-.989-7.801-2.924-10.392-4.301l-4.711-2.503-8.518 3.547-8.517 3.548-5.722-5.649-5.722-5.648 3.646-7.257c2.005-3.991 3.646-7.664 3.646-8.161 0-.498-1.328-3.652-2.951-7.009-1.624-3.357-3.568-8.21-4.322-10.785l-1.371-4.681-7.533-2.978-7.534-2.979-.245-8.099L16 86.185l8.13-2.821 8.13-2.821 1.903-5.25c1.046-2.888 3.231-7.628 4.854-10.535l2.952-5.284-3.205-7.736-3.206-7.736 5.75-5.675 5.749-5.675 7.794 3.77c7.366 3.564 7.946 3.709 10.582 2.635 1.534-.625 5.505-2.143 8.825-3.373 3.319-1.231 6.49-2.528 7.045-2.884.555-.356 2.236-4.281 3.735-8.724L87.764 16h16.079l2.651 6.284c1.458 3.457 3.002 7.197 3.431 8.312.602 1.562 2.239 2.489 7.13 4.035 3.492 1.104 8.266 2.96 10.608 4.125l4.259 2.117 7.617-3.685 7.617-3.685 5.736 5.661 5.736 5.662-3.136 7.312-3.136 7.312 3.338 6.255c1.836 3.44 4.031 8.505 4.879 11.254.848 2.749 1.647 5.146 1.774 5.325.128.18 3.252 1.379 6.943 2.665l6.71 2.338v16.502l-6.75 2.763-6.749 2.762-2.153 6.322c-1.184 3.477-3.356 8.485-4.826 11.128l-2.672 4.807 3.327 7.369 3.326 7.37-5.613 5.54-5.612 5.54-7.945-3.138-7.944-3.139-6.648 2.953c-3.656 1.624-8.394 3.417-10.529 3.984l-3.881 1.031-3.448 8.454c-2.93 7.184-3.739 8.454-5.388 8.459-1.925.006-1.94-.09-1.94-12.68v-12.686l4.491-.61c20.349-2.762 38.333-17.192 45.39-36.421 1.976-5.382 2.244-7.422 2.263-17.171.025-13.325-1.849-20.147-8.155-29.682-22.205-33.575-72.669-33.575-94.875 0-6.306 9.535-8.18 16.357-8.155 29.682.019 9.749.288 11.789 2.263 17.171 6.98 19.017 24.255 33.022 44.923 36.417l3.233.531v12.728c0 12.084-.085 12.727-1.694 12.727-.932 0-2.037-.67-2.455-1.489Zm2.136-39.402c-4.801-.795-15.321-5.664-19.111-8.845l-2.587-2.17 8.298-.005 8.298-.004 4.587-7.021c6.774-10.369 6.75-10.347 8.546-8.061.817 1.04 1.64 2.274 1.829 2.742.189.468 2.028 3.436 4.086 6.595l3.742 5.745h8.617c4.739 0 8.487-.298 8.329-.662-.158-.363-3.779-5.76-8.047-11.992-4.268-6.232-8.43-12.369-9.249-13.638l-1.488-2.306 6.388-8.893c3.514-4.89 7.787-10.807 9.497-13.147l3.109-4.256-7.88-.245c-4.536-.142-8.335.126-8.952.632-.59.483-3.326 4.154-6.081 8.158l-5.009 7.279-5.274-7.912-5.274-7.912-8.812-.242-8.811-.242 2.793 4.003c1.537 2.202 5.787 8.366 9.445 13.698l6.652 9.696-2.814 3.99c-13.334 18.912-16.416 23.139-16.868 23.13-1.262-.025-7.009-9.481-8.556-14.079-2.451-7.285-3.005-12.963-1.872-19.182 3.658-20.08 21.57-34.183 41.767-32.885 12.218.786 22.209 6.035 29.509 15.506 17.94 23.277 3.736 57.993-25.585 62.535-6.272.972-7.303.971-13.222-.01Z"/><path d="M87.784 174.511c-.419-.82-1.853-4.636-3.187-8.481l-2.426-6.992-5.681-1.799c-3.125-.989-7.801-2.924-10.392-4.301l-4.711-2.503-8.518 3.547-8.517 3.548-5.722-5.649-5.722-5.648 3.646-7.257c2.005-3.991 3.646-7.664 3.646-8.161 0-.498-1.328-3.652-2.951-7.009-1.624-3.357-3.568-8.21-4.322-10.785l-1.371-4.681-7.533-2.978-7.534-2.979-.245-8.099L16 86.185l8.13-2.821 8.13-2.821 1.903-5.25c1.046-2.888 3.231-7.628 4.854-10.535l2.952-5.284-3.205-7.736-3.206-7.736 5.75-5.675 5.749-5.675 7.794 3.77c7.366 3.564 7.946 3.709 10.582 2.635 1.534-.625 5.505-2.143 8.825-3.373 3.319-1.231 6.49-2.528 7.045-2.884.555-.356 2.236-4.281 3.735-8.724L87.764 16h16.079l2.651 6.284c1.458 3.457 3.002 7.197 3.431 8.312.602 1.562 2.239 2.489 7.13 4.035 3.492 1.104 8.266 2.96 10.608 4.125l4.259 2.117 7.617-3.685 7.617-3.685 5.736 5.661 5.736 5.662-3.136 7.312-3.136 7.312 3.338 6.255c1.836 3.44 4.031 8.505 4.879 11.254.848 2.749 1.647 5.146 1.774 5.325.128.18 3.252 1.379 6.943 2.665l6.71 2.338v16.502l-6.75 2.763-6.749 2.762-2.153 6.322c-1.184 3.477-3.356 8.485-4.826 11.128l-2.672 4.807 3.327 7.369 3.326 7.37-5.613 5.54-5.612 5.54-7.945-3.138-7.944-3.139-6.648 2.953c-3.656 1.624-8.394 3.417-10.529 3.984l-3.881 1.031-3.448 8.454c-2.93 7.184-3.739 8.454-5.388 8.459-1.925.006-1.94-.09-1.94-12.68v-12.686l4.491-.61c20.349-2.762 38.333-17.192 45.39-36.421 1.976-5.382 2.244-7.422 2.263-17.171.025-13.325-1.849-20.147-8.155-29.682-22.205-33.575-72.669-33.575-94.875 0-6.306 9.535-8.18 16.357-8.155 29.682.019 9.749.288 11.789 2.263 17.171 6.98 19.017 24.255 33.022 44.923 36.417l3.233.531v12.728c0 12.084-.085 12.727-1.694 12.727-.932 0-2.037-.67-2.455-1.489Z"/></svg>

<svg
    xmlns="http://www.w3.org/2000/svg"
    viewBox="0 0 192 192"
    id="vector">
    <g id="group">
        <path
            id="path_4"
            d="M 87.784 174.511 C 87.365 173.691 85.931 169.875 84.597 166.03 L 82.171 159.038 L 76.49 157.239 C 73.365 156.25 68.689 154.315 66.098 152.938 L 61.387 150.435 L 52.869 153.982 L 44.352 157.53 L 38.63 151.881 L 32.908 146.233 L 36.554 138.976 C 38.559 134.985 40.2 131.312 40.2 130.815 C 40.2 130.317 38.872 127.163 37.249 123.806 C 35.625 120.449 33.681 115.596 32.927 113.021 L 31.556 108.34 L 24.023 105.362 L 16.489 102.383 L 16.244 94.284 L 16 86.185 L 24.13 83.364 L 32.26 80.543 L 34.163 75.293 C 35.209 72.405 37.394 67.665 39.017 64.758 L 41.969 59.474 L 38.764 51.738 L 35.558 44.002 L 41.308 38.327 L 47.057 32.652 L 54.851 36.422 C 62.217 39.986 62.797 40.131 65.433 39.057 C 66.967 38.432 70.938 36.914 74.258 35.684 C 77.577 34.453 80.748 33.156 81.303 32.8 C 81.858 32.444 83.539 28.519 85.038 24.076 L 87.764 16 L 103.843 16 L 106.494 22.284 C 107.952 25.741 109.496 29.481 109.925 30.596 C 110.527 32.158 112.164 33.085 117.055 34.631 C 120.547 35.735 125.321 37.591 127.663 38.756 L 131.922 40.873 L 139.539 37.188 L 147.156 33.503 L 152.892 39.164 L 158.628 44.826 L 155.492 52.138 L 152.356 59.45 L 155.694 65.705 C 157.53 69.145 159.725 74.21 160.573 76.959 C 161.421 79.708 162.22 82.105 162.347 82.284 C 162.475 82.464 165.599 83.663 169.29 84.949 L 176 87.287 L 176 103.789 L 169.25 106.552 L 162.501 109.314 L 160.348 115.636 C 159.164 119.113 156.992 124.121 155.522 126.764 L 152.85 131.571 L 156.177 138.94 L 159.503 146.31 L 153.89 151.85 L 148.278 157.39 L 140.333 154.252 L 132.389 151.113 L 125.741 154.066 C 122.085 155.69 117.347 157.483 115.212 158.05 L 111.331 159.081 L 107.883 167.535 C 104.953 174.719 104.144 175.989 102.495 175.994 C 100.57 176 100.555 175.904 100.555 163.314 L 100.555 150.628 L 105.046 150.018 C 125.395 147.256 143.379 132.826 150.436 113.597 C 152.412 108.215 152.68 106.175 152.699 96.426 C 152.724 83.101 150.85 76.279 144.544 66.744 C 122.339 33.169 71.875 33.169 49.669 66.744 C 43.363 76.279 41.489 83.101 41.514 96.426 C 41.533 106.175 41.802 108.215 43.777 113.597 C 50.757 132.614 68.032 146.619 88.7 150.014 L 91.933 150.545 L 91.933 163.273 C 91.933 175.357 91.848 176 90.239 176 C 89.307 176 88.202 175.33 87.784 174.511 Z M 89.92 135.109 C 85.119 134.314 74.599 129.445 70.809 126.264 L 68.222 124.094 L 76.52 124.089 L 84.818 124.085 L 89.405 117.064 C 96.179 106.695 96.155 106.717 97.951 109.003 C 98.768 110.043 99.591 111.277 99.78 111.745 C 99.969 112.213 101.808 115.181 103.866 118.34 L 107.608 124.085 L 116.225 124.085 C 120.964 124.085 124.712 123.787 124.554 123.423 C 124.396 123.06 120.775 117.663 116.507 111.431 C 112.239 105.199 108.077 99.062 107.258 97.793 L 105.77 95.487 L 112.158 86.594 C 115.672 81.704 119.945 75.787 121.655 73.447 L 124.764 69.191 L 116.884 68.946 C 112.348 68.804 108.549 69.072 107.932 69.578 C 107.342 70.061 104.606 73.732 101.851 77.736 L 96.842 85.015 L 91.568 77.103 L 86.294 69.191 L 77.482 68.949 L 68.671 68.707 L 71.464 72.71 C 73.001 74.912 77.251 81.076 80.909 86.408 L 87.561 96.104 L 84.747 100.094 C 71.413 119.006 68.331 123.233 67.879 123.224 C 66.617 123.199 60.87 113.743 59.323 109.145 C 56.872 101.86 56.318 96.182 57.451 89.963 C 61.109 69.883 79.021 55.78 99.218 57.078 C 111.436 57.864 121.427 63.113 128.727 72.584 C 146.667 95.861 132.463 130.577 103.142 135.119 C 96.87 136.091 95.839 136.09 89.92 135.109 Z"
            fill="#000000"
            stroke-width="12"/>
        <path
            id="path_6"
            d="M 87.784 174.511 C 87.365 173.691 85.931 169.875 84.597 166.03 L 82.171 159.038 L 76.49 157.239 C 73.365 156.25 68.689 154.315 66.098 152.938 L 61.387 150.435 L 52.869 153.982 L 44.352 157.53 L 38.63 151.881 L 32.908 146.233 L 36.554 138.976 C 38.559 134.985 40.2 131.312 40.2 130.815 C 40.2 130.317 38.872 127.163 37.249 123.806 C 35.625 120.449 33.681 115.596 32.927 113.021 L 31.556 108.34 L 24.023 105.362 L 16.489 102.383 L 16.244 94.284 L 16 86.185 L 24.13 83.364 L 32.26 80.543 L 34.163 75.293 C 35.209 72.405 37.394 67.665 39.017 64.758 L 41.969 59.474 L 38.764 51.738 L 35.558 44.002 L 41.308 38.327 L 47.057 32.652 L 54.851 36.422 C 62.217 39.986 62.797 40.131 65.433 39.057 C 66.967 38.432 70.938 36.914 74.258 35.684 C 77.577 34.453 80.748 33.156 81.303 32.8 C 81.858 32.444 83.539 28.519 85.038 24.076 L 87.764 16 L 103.843 16 L 106.494 22.284 C 107.952 25.741 109.496 29.481 109.925 30.596 C 110.527 32.158 112.164 33.085 117.055 34.631 C 120.547 35.735 125.321 37.591 127.663 38.756 L 131.922 40.873 L 139.539 37.188 L 147.156 33.503 L 152.892 39.164 L 158.628 44.826 L 155.492 52.138 L 152.356 59.45 L 155.694 65.705 C 157.53 69.145 159.725 74.21 160.573 76.959 C 161.421 79.708 162.22 82.105 162.347 82.284 C 162.475 82.464 165.599 83.663 169.29 84.949 L 176 87.287 L 176 103.789 L 169.25 106.552 L 162.501 109.314 L 160.348 115.636 C 159.164 119.113 156.992 124.121 155.522 126.764 L 152.85 131.571 L 156.177 138.94 L 159.503 146.31 L 153.89 151.85 L 148.278 157.39 L 140.333 154.252 L 132.389 151.113 L 125.741 154.066 C 122.085 155.69 117.347 157.483 115.212 158.05 L 111.331 159.081 L 107.883 167.535 C 104.953 174.719 104.144 175.989 102.495 175.994 C 100.57 176 100.555 175.904 100.555 163.314 L 100.555 150.628 L 105.046 150.018 C 125.395 147.256 143.379 132.826 150.436 113.597 C 152.412 108.215 152.68 106.175 152.699 96.426 C 152.724 83.101 150.85 76.279 144.544 66.744 C 122.339 33.169 71.875 33.169 49.669 66.744 C 43.363 76.279 41.489 83.101 41.514 96.426 C 41.533 106.175 41.802 108.215 43.777 113.597 C 50.757 132.614 68.032 146.619 88.7 150.014 L 91.933 150.545 L 91.933 163.273 C 91.933 175.357 91.848 176 90.239 176 C 89.307 176 88.202 175.33 87.784 174.511 Z"
            fill="#000000"
            stroke-width="12"/>
    </g>
</svg>
